icon-svg/scene-concentrate.svg

<svg xmlns="http://www.w3.org/2000/svg" viewBox="0 0 24 24"><path fill="#44739e" d="M12 2C6.49 2 2 6.49 2 12s4.49 10 10 10 10-4.49 10-10S17.51 2 12 2m0 19.009c-4.965 0-9.009-4.044-9.009-9.009S7.035 2.991 12 2.991 21.009 7.035 21.009 12 16.965 21.009 12 21.009m0-16.492c-4.123 0-7.473 3.35-7.473 7.473s3.35 7.483 7.473 7.483 7.483-3.35 7.483-7.483c0-4.113-3.36-7.473-7.483-7.473m0 13.667c-3.409 0-6.194-2.775-6.194-6.184S8.581 5.806 12 5.806c3.409 0 6.184 2.775 6.184 6.194A6.19 6.19 0 0 1 12 18.184m0-10.505A4.324 4.324 0 0 0 7.679 12 4.324 4.324 0 0 0 12 16.321 4.324 4.324 0 0 0 16.321 12 4.32 4.32 0 0 0 12 7.679m0 7.056c-1.506 0-2.735-1.229-2.735-2.735S10.494 9.265 12 9.265s2.735 1.229 2.735 2.735-1.229 2.735-2.735 2.735"/></svg>

<?xml version="1.0" encoding="UTF-8"?>
<svg width="24px" fill="#44739e" height="24px" viewBox="0 0 24 24" version="1.1" xmlns="http://www.w3.org/2000/svg" xmlns:xlink="http://www.w3.org/1999/xlink">
            <path d="M12,1.91C6.44,1.91,1.91,6.44,1.91,12c0,5.56,4.53,10.09,10.09,10.09c5.56,0,10.09-4.53,10.09-10.09 C22.09,6.44,17.56,1.91,12,1.91z M12,21.09c-5.01,0-9.09-4.08-9.09-9.09S6.99,2.91,12,2.91s9.09,4.08,9.09,9.09 S17.01,21.09,12,21.09z M12,4.45c-4.16,0-7.54,3.38-7.54,7.54c0,4.16,3.38,7.55,7.54,7.55c4.16,0,7.55-3.38,7.55-7.55 C19.55,7.84,16.16,4.45,12,4.45z M12,18.24c-3.44,0-6.25-2.8-6.25-6.24c0-3.44,2.8-6.25,6.25-6.25c3.44,0,6.24,2.8,6.24,6.25 C18.24,15.44,15.44,18.24,12,18.24z M12,7.64c-2.41,0-4.36,1.96-4.36,4.36c0,2.41,1.96,4.36,4.36,4.36c2.41,0,4.36-1.96,4.36-4.36 C16.36,9.59,14.41,7.64,12,7.64z M12,14.76c-1.52,0-2.76-1.24-2.76-2.76S10.48,9.24,12,9.24s2.76,1.24,2.76,2.76 S13.52,14.76,12,14.76z"/>

</svg>
